outline/svg/view_comfy.svg

<svg xmlns="http://www.w3.org/2000/svg" width="24" height="24"><path fill="none" d="M0 0h24v24H0V0z"/><g fill="currentColor"><path d="M3 5v14h19V5H3zm17 4h-2.25V7H20v2zM9.25 11h2.25v2H9.25v-2zm-2 2H5v-2h2.25v2zm4.25-4H9.25V7h2.25v2zm2-2h2.25v2H13.5V7zm-2 8v2H9.25v-2h2.25zm2 0h2.25v2H13.5v-2zm0-2v-2h2.25v2H13.5zm4.25-2H20v2h-2.25v-2zM7.25 7v2H5V7h2.25zM5 15h2.25v2H5v-2zm12.75 2v-2H20v2h-2.25z"/></g></svg>

<?xml version="1.0" encoding="utf-8"?>
<!-- Generator: Adobe Illustrator 19.1.0, SVG Export Plug-In . SVG Version: 6.00 Build 0)  -->
<svg version="1.1" xmlns="http://www.w3.org/2000/svg" xmlns:xlink="http://www.w3.org/1999/xlink" x="0px" y="0px" width="24px"
	 height="24px" viewBox="0 0 24 24" enable-background="new 0 0 24 24" xml:space="preserve">
<g id="Bounding_Boxes">
	<g id="ui_x5F_spec_x5F_header_copy_2">
	</g>
	<path fill="none" d="M0,0h24v24H0V0z"/>
</g>
<g id="Outline" fill="currentColor">
	<g id="ui_x5F_spec_x5F_header">
	</g>
	<path d="M3,5v14h19V5H3z M20,9h-2.25V7H20V9z M9.25,11h2.25v2H9.25V11z M7.25,13H5v-2h2.25V13z M11.5,9H9.25V7h2.25V9z M13.5,7
		h2.25v2H13.5V7z M11.5,15v2H9.25v-2H11.5z M13.5,15h2.25v2H13.5V15z M13.5,13v-2h2.25v2H13.5z M17.75,11H20v2h-2.25V11z M7.25,7v2
		H5V7H7.25z M5,15h2.25v2H5V15z M17.75,17v-2H20v2H17.75z"/>
</g>
</svg>
